HTML/img/Component/Encrypted Morse.svg

<svg xmlns="http://www.w3.org/2000/svg" id="Layer_1" viewBox="0 0 348 348" version="1.1"><style id="style6655">.st0,.st1{fill:none;stroke:#000;stroke-width:2}.st1{stroke-miterlimit:10}</style><path class="st0" d="M5.1 5.8H342v337.7H5.1V5.8z" id="path6657"/><path class="st0" d="M286.6 40.6c0-8.4 7-15.2 15.6-15.2 4.1 0 8.1 1.6 11 4.4s4.6 6.7 4.6 10.7c0 8.4-7 15.2-15.6 15.2s-15.6-6.8-15.6-15.1z" id="path6659"/><path class="st1" d="M71 221.3h96.5v77H71zm105 0h96.5v77H176zm-92-100l-.5-50.5m-36 0l-.5 50.5m0 0c0 9.9 8.5 18 19 18m18-18c0 9.9-8.1 18-18 18M47.5 70.8c0-10.5 8.3-19 18.5-19m17.5 19c0-10.5-7.8-19-17.5-19m0 96l19.5-6.2m7-16.4l-7 16.4M92 66.8l.5 58.4m-7-75.4l6.5 17m-26-23l19.5 6m-38.5 0l19-6M39.5 67.3L47 49.8m-7 75.4l-.5-57.9m7.5 74.3l-7-16.4m26 22.6l-19-6.2" id="path6661"/><circle class="st1" cx="128.5" cy="95.7" r="17" id="circle6663"/><path class="st1" d="M144.5 139.3h54V174h-54z" id="path6665"/><path d="M113.5 256.3h9.3v9.3h-9.3zm98 0H236v9.3h-24.5z" id="path6667"/><g aria-label="^" transform="rotate(-49.998 171.314 -86.111)" id="text6669" font-size="17" font-family="ArialMT"><path d="M12.368-5.678h-1.643l-3.777-5.204-3.769 5.22H1.544l4.89-6.698h1.045z" id="path7227" font-size="17" font-family="ArialMT"/></g><path d="M47 74.3h36.5M47 116.8l36.5-.5" id="path6671" stroke-width="9" stroke-miterlimit="10" fill="none" stroke="#000"/><path d="M152 221.3v-46.7m39 46.7v-47M92.2 95.7h19.3m44 43.6l-26.8-26.8m58.8 26.8l-41.8-41.8" id="path6673" stroke-width="3" stroke-miterlimit="10" fill="none" stroke="#000"/><path d="M234.3 95.7h80.3V203h-80.3z" id="path6675"/></svg>

<svg id="Layer_1" xmlns="http://www.w3.org/2000/svg" viewBox="0 0 348 348"><style>.st0,.st1,.st4,.st5{fill:none;stroke:#000;stroke-width:2}.st1,.st4,.st5{stroke-miterlimit:10}.st4,.st5{stroke-width:9}.st5{stroke-width:3}</style><path class="st0" d="M5.1 5.8H342v337.7H5.1V5.8z"/><path class="st0" d="M286.6 40.6c0-8.4 7-15.2 15.6-15.2 4.1 0 8.1 1.6 11 4.4s4.6 6.7 4.6 10.7c0 8.4-7 15.2-15.6 15.2s-15.6-6.8-15.6-15.1z"/><path class="st1" d="M71 221.3h96.5v77H71zM176 221.3h96.5v77H176zM84 121.3l-.5-50.5M47.5 70.8l-.5 50.5M47 121.3c0 9.9 8.5 18 19 18M84 121.3c0 9.9-8.1 18-18 18M47.5 70.8c0-10.5 8.3-19 18.5-19M83.5 70.8c0-10.5-7.8-19-17.5-19M66 147.8l19.5-6.2M92.5 125.2l-7 16.4M92 66.8l.5 58.4M85.5 49.8l6.5 17M66 43.8l19.5 6M47 49.8l19-6M39.5 67.3L47 49.8M40 125.2l-.5-57.9M47 141.6l-7-16.4M66 147.8l-19-6.2"/><circle class="st1" cx="128.5" cy="95.7" r="17"/><path class="st1" d="M144.5 139.3h54V174h-54z"/><path d="M113.5 256.3h9.3v9.3h-9.3zM211.5 256.3H236v9.3h-24.5z"/><text transform="rotate(-49.998 171.314 -86.111)" font-size="17" font-family="ArialMT">^</text><path class="st4" d="M47 74.3h36.5M47 116.8l36.5-.5"/><path class="st5" d="M152 221.3v-46.7M191 221.3v-47M92.2 95.7h19.3M155.5 139.3l-26.8-26.8M187.5 139.3l-41.8-41.8"/><path d="M234.3 95.7h80.3V203h-80.3z"/></svg>
